themes/sector_starter/build/sprite/icon--close-small-white.svg

<svg xmlns="http://www.w3.org/2000/svg" width="12" height="12" viewBox="0 0 12 12"><style type="text/css">.st0{fill:#FFFFFF;}</style><path class="st0" d="M12 1.2l-1.2-1.2-4.8 4.8-4.8-4.8-1.2 1.2 4.8 4.8-4.8 4.8 1.2 1.2 4.8-4.8 4.8 4.8 1.2-1.2-4.8-4.8 4.8-4.8z"/></svg>

<svg xmlns="http://www.w3.org/2000/svg" width="12" height="12"><path d="M12 1.2L10.8 0 6 4.8 1.2 0 0 1.2 4.8 6 0 10.8 1.2 12 6 7.2l4.8 4.8 1.2-1.2L7.2 6 12 1.2z" fill="#fff"/></svg>
